X:1
T:Forest of Mar, The
T:Forest of Mar, The
T:Alexander Walker
C:Alexander Walker
L:1/8
M:2/2
K:Dmin
V:1 treble 
V:1
 c | Addc defd | cAFA GECE | Addc defd | cA GE D/D/DD :| d | fdad bdad | ecgc acgc | fdad bdgd | %9
 c'age d2 df | d/d/d Ad FdEd | c/c/c Gc Ec EC | DFEG FAGg | fdec d/d/dd || %14

